usr/share/icons/biglinux-icons-material/16/actions/stroke-join-round.svg

<svg xmlns="http://www.w3.org/2000/svg" viewBox="0 0 16 16">
  <defs id="defs3051">
    <style type="text/css" id="current-color-scheme">
      .ColorScheme-Text {
        color:#dedede;
      }
      </style>
  </defs>
 <path style="fill:currentColor;fill-opacity:1;stroke:none" 
     d="m4 2c-1.108 0-2 .892-2 2v10h4v-8h8v-4h-7zm0 1h9v2h-8v8h-2v-9c0-.554.446-1 1-1m4 5v6h4v-2h2v-4h-4zm1 1h4v2h-2v2h-2z"
     class="ColorScheme-Text"
     />
</svg>

<svg xmlns="http://www.w3.org/2000/svg" viewBox="0 0 16 16"><path d="M4 2c-1.108 0-2 .892-2 2v10h4V6h8V2H7zm0 1h9v2H5v8H3V4c0-.554.446-1 1-1m4 5v6h4v-2h2V8h-4zm1 1h4v2h-2v2H9z" style="fill:currentColor;fill-opacity:1;stroke:none;color:#dedede"/></svg>
